dist/images/misc/icon medium.svg

<svg fill="none" height="20" viewBox="0 0 20 20" width="20" xmlns="http://www.w3.org/2000/svg"><path d="m4.77271 6.68879c.0167-.16493-.0462-.32795-.16936-.43896l-1.25452-1.51126v-.22575h3.89528l3.01089 6.60318 2.647-6.60318h3.7134v.22575l-1.0726 1.02841c-.0925.07049-.1384.18634-.1192.301v7.55632c-.0192.1147.0267.2305.1192.301l1.0475 1.0284v.2258h-5.269v-.2258l1.0852-1.0535c.1066-.1066.1066-.1379.1066-.301v-6.10774l-3.01712 7.66294h-.40772l-3.51266-7.66294v5.13584c-.02928.2159.04243.4333.19446.5894l1.41133 1.712v.2257h-4.00192v-.2257l1.41134-1.712c.15092-.1564.21845-.3752.1819-.5894z" fill="#fff"/></svg>

<svg width="20" height="20" viewBox="0 0 20 20" fill="none" xmlns="http://www.w3.org/2000/svg">
<path d="M4.77271 6.68879C4.78941 6.52386 4.72651 6.36084 4.60335 6.24983L3.34883 4.73857V4.51282H7.24411L10.255 11.116L12.902 4.51282H16.6154V4.73857L15.5428 5.76698C15.4503 5.83747 15.4044 5.95332 15.4236 6.06798V13.6243C15.4044 13.739 15.4503 13.8548 15.5428 13.9253L16.5903 14.9537V15.1795H11.3213V14.9537L12.4065 13.9002C12.5131 13.7936 12.5131 13.7623 12.5131 13.5992V7.49146L9.49598 15.1544H9.08826L5.5756 7.49146V12.6273C5.54632 12.8432 5.61803 13.0606 5.77006 13.2167L7.18139 14.9287V15.1544H3.17947V14.9287L4.59081 13.2167C4.74173 13.0603 4.80926 12.8415 4.77271 12.6273V6.68879Z" fill="white"/>
</svg>
